X:1
T:79
L:1/8
M:2/4
K:C
V:1 treble nm="Piano" snm="Pno."
V:1
 c2 G2 | A3 E | CD EF | G4 | A2 c2 | B2 A2 | G2 FE | D4 | G3 E | FG A2 | G3 A | Bc d2 | e2 c2 | %13
 d2 A2 | G2 AB | c4 |] %16

